src/assets/images/bump-ok.svg

<?xml version="1.0" encoding="UTF-8"?>
<svg width="200px" height="237px" viewBox="0 0 200 237" version="1.1" xmlns="http://www.w3.org/2000/svg" xmlns:xlink="http://www.w3.org/1999/xlink">
    <!-- Generator: Sketch 52.5 (67469) - http://www.bohemiancoding.com/sketch -->
    <title>icon</title>
    <desc>Created with Sketch.</desc>
    <g id="Page-1" stroke="none" stroke-width="1" fill="none" fill-rule="evenodd">
        <g id="featured-listing" transform="translate(-460.000000, -258.000000)">
            <g id="icon" transform="translate(460.000000, 258.000000)">
                <circle id="Oval" fill="#FFFFFF" fill-rule="nonzero" cx="100" cy="112" r="100"></circle>
                <path d="M19.4756,61.3692 L17.9296,60.5872 C16.4806,59.8532 15.4486,58.4942 15.1306,56.9002 L14.7936,55.2022 C14.7116,54.7912 14.3786,54.4782 13.9646,54.4222 C13.5506,54.3652 13.1466,54.5772 12.9566,54.9512 L12.1756,56.4952 C11.4416,57.9462 10.0816,58.9772 8.4886,59.2942 L6.7896,59.6322 C6.3796,59.7132 6.0656,60.0462 6.0086,60.4612 C5.9526,60.8752 6.1646,61.2802 6.5376,61.4682 L8.0836,62.2502 C9.5336,62.9842 10.5646,64.3442 10.8826,65.9372 L11.2196,67.6362 C11.3016,68.0462 11.6346,68.3592 12.0486,68.4162 C12.4616,68.4732 12.8676,68.2602 13.0566,67.8882 L13.8376,66.3422 C14.5726,64.8932 15.9316,63.8602 17.5246,63.5442 L19.2236,63.2052 C19.6336,63.1242 19.9476,62.7912 20.0036,62.3782 C20.0616,61.9632 19.8476,61.5572 19.4756,61.3692" id="Fill-9" fill="#CFD8DC"></path>
                <path d="M143.666,167.419 L142.146,166.651 C140.722,165.929 139.706,164.592 139.395,163.025 L139.062,161.356 C138.982,160.953 138.655,160.644 138.248,160.588 C137.841,160.533 137.442,160.742 137.257,161.108 L136.488,162.627 C135.767,164.053 134.431,165.068 132.863,165.379 L131.193,165.711 C130.79,165.792 130.482,166.119 130.427,166.526 C130.37,166.933 130.579,167.332 130.946,167.517 L132.465,168.286 C133.891,169.007 134.905,170.344 135.217,171.911 L135.549,173.581 C135.629,173.984 135.957,174.292 136.364,174.348 C136.77,174.403 137.169,174.195 137.354,173.828 L138.123,172.309 C138.845,170.883 140.182,169.869 141.749,169.557 L143.418,169.225 C143.822,169.145 144.13,168.817 144.186,168.41 C144.241,168.003 144.033,167.605 143.666,167.419" id="Fill-12" fill="#CFD8DC"></path>
                <path d="M132.6465,90.6285 C131.4465,90.2985 130.2865,89.7885 129.2135,89.1395 C132.5195,103.0545 135.4965,116.9815 137.1115,127.8895 L134.2515,128.1325 C133.4265,128.2035 132.8145,128.9295 132.8855,129.7545 C132.9525,130.5375 133.6075,131.1275 134.3775,131.1275 C134.4205,131.1275 134.4635,131.1255 134.5075,131.1225 L138.9505,130.7435 C139.3605,130.7085 139.7385,130.5055 139.9955,130.1845 C140.2515,129.8625 140.3655,129.4495 140.3075,129.0415 C138.8215,118.3855 135.9235,104.5725 132.6465,90.6285" id="Fill-14" fill="#CFD8DC"></path>
                <path d="M125.248,73.0128 C125.511,72.5548 125.821,72.1288 126.21,71.6858 C126.326,71.5528 126.452,71.4158 126.583,71.2888 C126.727,71.1018 126.877,70.9208 127.028,70.7388 C127.044,70.7208 127.058,70.7008 127.073,70.6838 C127.145,70.5978 127.213,70.5088 127.286,70.4248 C127.388,70.3108 127.501,70.2258 127.608,70.1268 C121.897,47.7478 116.557,29.2258 116.455,28.8768 C116.239,28.1308 115.486,27.6708 114.727,27.8218 L54.867,39.5408 C54.452,39.6218 54.092,39.8738 53.872,40.2358 C53.653,40.5968 53.597,41.0338 53.717,41.4388 L55.758,48.3318 C55.994,49.1278 56.835,49.5798 57.622,49.3448 C58.416,49.1098 58.87,48.2748 58.635,47.4808 L57.061,42.1678 L113.952,31.0308 C115.323,35.8338 120.204,53.1108 125.248,73.0128" id="Fill-16" fill="#CFD8DC"></path>
                <path d="M66.0479,87.4322 C66.0479,87.4322 63.2829,78.6272 50.6469,83.7712 C38.0099,88.9152 19.7869,92.9912 9.0699,86.6142 C9.0699,86.6142 12.8929,102.0982 32.3649,95.9922" id="Stroke-18" stroke="#13C1AC" stroke-width="3" stroke-linecap="round" stroke-linejoin="round"></path>
                <path d="M18.9766,97.9825 C18.9766,97.9825 24.1086,108.8895 37.5976,103.4085" id="Stroke-20" stroke="#13C1AC" stroke-width="3" stroke-linecap="round" stroke-linejoin="round"></path>
                <path d="M29.2373,105.8008 C29.2373,105.8008 32.6753,113.5128 45.2813,108.2428" id="Stroke-22" stroke="#13C1AC" stroke-width="3" stroke-linecap="round" stroke-linejoin="round"></path>
                <path d="M41.4189,110.4957 C41.4189,110.4957 44.4659,116.5677 52.0639,112.0917 C59.6609,107.6157 60.6329,104.9847 60.6329,104.9847" id="Stroke-24" stroke="#13C1AC" stroke-width="3" stroke-linecap="round" stroke-linejoin="round"></path>
                <path d="M53.9072,92.8785 C53.9072,92.8785 65.3152,88.1265 67.1782,96.0885" id="Stroke-26" stroke="#13C1AC" stroke-width="3" stroke-linecap="round" stroke-linejoin="round"></path>
                <g id="Group-31" transform="translate(51.000000, 100.794000)">
                    <path d="M0.1553,1.25 L3.0303,0.5" id="Fill-28" fill="#FFFFFF"></path>
                    <path d="M0.1553,1.25 L3.0303,0.5" id="Stroke-30" stroke="#13C1AC" stroke-width="3" stroke-linecap="round" stroke-linejoin="round"></path>
                </g>
                <path d="M125.1758,81.1358 C124.0998,66.4978 136.4738,64.1188 136.4738,64.1188 C158.4438,60.8928 176.1808,49.6018 183.3438,35.9528 C183.3438,35.9528 197.1698,57.0358 154.3098,69.6358" id="Stroke-32" stroke="#13C1AC" stroke-width="3" stroke-linecap="round" stroke-linejoin="round"></path>
                <path d="M183.6084,54.2178 C183.6084,54.2178 194.6304,68.2148 160.1714,76.4718" id="Stroke-34" stroke="#13C1AC" stroke-width="3" stroke-linecap="round" stroke-linejoin="round"></path>
                <path d="M181.3857,68.462 C181.3857,68.462 183.1337,79.479 164.9837,83.545" id="Stroke-36" stroke="#13C1AC" stroke-width="3" stroke-linecap="round" stroke-linejoin="round"></path>
                <path d="M174.5117,80.6202 C174.5117,80.6202 175.3497,91.6422 157.8887,89.4072" id="Stroke-38" stroke="#13C1AC" stroke-width="3" stroke-linecap="round" stroke-linejoin="round"></path>
                <path d="M165.0273,90.0001 C161.9313,92.2801 157.6613,94.3451 152.1153,94.7241 C150.2143,94.8541 148.1633,94.7851 145.9583,94.4591 C140.7473,93.6901 134.6773,91.4821 127.6953,87.0561" id="Stroke-40" stroke="#13C1AC" stroke-width="3" stroke-linecap="round" stroke-linejoin="round"></path>
                <g id="Group-45" transform="translate(137.000000, 80.794000)">
                    <path d="M0.1553,0.625 C0.1553,0.625 4.0303,1.625 6.0303,1.125" id="Fill-42" fill="#FFFFFF"></path>
                    <path d="M0.1553,0.625 C0.1553,0.625 4.0303,1.625 6.0303,1.125" id="Stroke-44" stroke="#13C1AC" stroke-width="3" stroke-linecap="round" stroke-linejoin="round"></path>
                </g>
                <g id="Group-49" transform="translate(142.000000, 72.794000)">
                    <path d="M0.0303,1.375 C0.0303,1.375 3.2803,1.375 4.4053,1" id="Fill-46" fill="#FFFFFF"></path>
                    <path d="M0.0303,1.375 C0.0303,1.375 3.2803,1.375 4.4053,1" id="Stroke-48" stroke="#13C1AC" stroke-width="3" stroke-linecap="round" stroke-linejoin="round"></path>
                </g>
                <path d="M89.5693,167.294 L89.7413,202.294" id="Stroke-50" stroke="#ECEFF1" stroke-width="3" stroke-linecap="round" stroke-linejoin="round"></path>
                <path d="M120.5693,174.294 L120.7413,197.294" id="Stroke-52" stroke="#ECEFF1" stroke-width="3" stroke-linecap="round" stroke-linejoin="round"></path>
                <path d="M105.6553,158.294 L105.6553,235.294" id="Stroke-54" stroke="#ECEFF1" stroke-width="3" stroke-linecap="round" stroke-linejoin="round"></path>
                <path d="M61.0801,134.2466 L60.2971,133.3536 C59.5611,132.5176 59.2531,131.3896 59.4581,130.2936 L59.6771,129.1286 C59.7291,128.8456 59.5981,128.5616 59.3491,128.4196 C59.1001,128.2786 58.7881,128.3096 58.5721,128.4986 L57.6811,129.2826 C56.8431,130.0176 55.7161,130.3266 54.6211,130.1216 L53.4541,129.9026 C53.1731,129.8506 52.8881,129.9816 52.7451,130.2306 C52.6031,130.4796 52.6361,130.7916 52.8251,131.0066 L53.6081,131.8986 C54.3441,132.7356 54.6521,133.8646 54.4471,134.9586 L54.2281,136.1256 C54.1761,136.4076 54.3081,136.6916 54.5571,136.8336 C54.8061,136.9756 55.1171,136.9436 55.3331,136.7546 L56.2251,135.9716 C57.0611,135.2366 58.1901,134.9266 59.2841,135.1316 L60.4511,135.3506 C60.7331,135.4036 61.0181,135.2716 61.1591,135.0226 C61.3021,134.7736 61.2691,134.4616 61.0801,134.2466" id="Fill-56" fill="#C1F5E6"></path>
                <path d="M119.7881,5.9146 L119.0051,5.0226 C118.2691,4.1856 117.9601,3.0586 118.1651,1.9626 L118.3841,0.7966 C118.4361,0.5136 118.3051,0.2296 118.0561,0.0886 C117.8081,-0.0534 117.4961,-0.0224 117.2791,0.1676 L116.3891,0.9506 C115.5511,1.6856 114.4231,1.9956 113.3281,1.7896 L112.1611,1.5716 C111.8801,1.5186 111.5951,1.6496 111.4531,1.8986 C111.3111,2.1476 111.3441,2.4596 111.5321,2.6746 L112.3161,3.5676 C113.0511,4.4036 113.3601,5.5326 113.1551,6.6276 L112.9361,7.7936 C112.8841,8.0756 113.0161,8.3596 113.2651,8.5016 C113.5141,8.6436 113.8251,8.6116 114.0411,8.4226 L114.9331,7.6396 C115.7691,6.9046 116.8971,6.5946 117.9921,6.7996 L119.1591,7.0186 C119.4401,7.0716 119.7261,6.9396 119.8671,6.6916 C120.0091,6.4416 119.9761,6.1296 119.7881,5.9146" id="Fill-58" fill="#C1F5E6"></path>
                <path d="M165.2217,138.0025 L164.4007,137.0665 C163.6287,136.1895 163.3047,135.0055 163.5197,133.8565 L163.7487,132.6325 C163.8047,132.3355 163.6657,132.0385 163.4057,131.8895 C163.1437,131.7405 162.8177,131.7735 162.5897,131.9725 L161.6557,132.7945 C160.7767,133.5655 159.5927,133.8905 158.4447,133.6745 L157.2197,133.4455 C156.9247,133.3895 156.6257,133.5275 156.4767,133.7895 C156.3277,134.0505 156.3627,134.3775 156.5607,134.6035 L157.3817,135.5395 C158.1537,136.4175 158.4777,137.6015 158.2627,138.7505 L158.0337,139.9745 C157.9787,140.2705 158.1167,140.5685 158.3767,140.7165 C158.6387,140.8655 158.9657,140.8325 159.1917,140.6345 L160.1267,139.8125 C161.0057,139.0415 162.1897,138.7165 163.3377,138.9315 L164.5627,139.1615 C164.8577,139.2165 165.1567,139.0785 165.3057,138.8175 C165.4537,138.5555 165.4207,138.2285 165.2217,138.0025" id="Fill-60" fill="#CFD8DC"></path>
                <path d="M120.6553,205.294 L120.6553,220.294" id="Stroke-62" stroke="#ECEFF1" stroke-width="3" stroke-linecap="round"></path>
                <path d="M89.6553,209.294 L89.6553,213.294" id="Stroke-64" stroke="#ECEFF1" stroke-width="3" stroke-linecap="round"></path>
                <path d="M87.9033,87.3941 C88.8713,91.4401 92.9233,93.9521 96.9813,93.0091 C101.0403,92.0661 103.5693,88.0251 102.6553,83.9671 L87.9033,87.3941 Z" id="Stroke-66" stroke="#607D8B" stroke-width="3" stroke-linejoin="round"></path>
                <path d="M105.4561,76.6753 C106.8211,75.1513 108.9931,74.6463 110.8901,75.4133" id="Stroke-68" stroke="#607D8B" stroke-width="3" stroke-linecap="round" stroke-linejoin="round"></path>
                <path d="M76.0645,83.5035 C77.4285,81.9795 79.6005,81.4745 81.4975,82.2415" id="Stroke-70" stroke="#607D8B" stroke-width="3" stroke-linecap="round" stroke-linejoin="round"></path>
                <path d="M51.8223,49.5357 C49.8223,48.8447 68.4883,75.1077 79.1553,146.2937 L135.1553,137.3087 C135.1553,137.3087 124.1553,59.2937 105.6553,33.2937 L51.8223,49.5357 Z" id="Stroke-72" stroke="#607D8B" stroke-width="3" stroke-linecap="round" stroke-linejoin="round"></path>
                <path d="M60.7939,53.8091 C59.1769,53.1981 74.5329,76.0681 83.1549,138.9601 L128.1549,131.3561 C128.1549,131.3561 115.8219,61.2941 102.1549,41.6271 L60.7939,53.8091 Z" id="Stroke-74" stroke="#CFD8DC" stroke-width="3" stroke-linecap="round" stroke-linejoin="round"></path>
                <path d="M92.4883,135.6275 C92.4883,131.3935 89.0553,127.9605 84.8223,127.9605 C83.1193,127.9605 83.0933,127.3555 81.8223,128.2945 C79.9293,129.6905 83.1553,134.4295 83.1553,136.9605 C83.1553,141.1945 80.2553,137.9605 84.4883,137.9605 C86.3403,137.9605 83.8303,139.3865 85.1553,138.2945 C86.8603,136.8875 92.4883,138.0105 92.4883,135.6275" id="Fill-76" fill="#CFD8DC"></path>
                <path d="M118.6387,131.7706 C116.8787,127.9186 118.5757,123.3706 122.4267,121.6116 C123.9757,120.9046 123.7467,120.3426 125.2937,120.6676 C127.5947,121.1526 126.6297,126.8026 127.6817,129.1056 C129.4417,132.9576 130.7367,128.8096 126.8847,130.5686 C125.2007,131.3376 128.0767,131.5926 126.4167,131.1486 C124.2817,130.5786 119.6287,133.9376 118.6387,131.7706" id="Fill-78" fill="#CFD8DC"></path>
                <path d="M70.8057,52.5567 C72.9387,56.2147 71.7017,60.9087 68.0437,63.0417 C66.5737,63.8987 66.8567,64.4347 65.2847,64.2647 C62.9477,64.0117 63.3467,58.2927 62.0717,56.1057 C59.9387,52.4477 59.0617,56.7027 62.7197,54.5707 C64.3187,53.6377 61.4327,53.6697 63.1267,53.9467 C65.3087,54.3027 69.6057,50.4977 70.8057,52.5567" id="Fill-80" fill="#CFD8DC"></path>
                <path d="M93.3027,46.7964 C94.1937,50.9364 98.2717,53.5694 102.4107,52.6794 C104.0747,52.3214 104.2277,52.9074 105.2737,51.7224 C106.8287,49.9594 102.6797,46.0044 102.1477,43.5294 C101.2567,39.3904 104.7727,41.9424 100.6337,42.8324 C98.8237,43.2224 100.9777,41.3004 99.9107,42.6474 C98.5397,44.3804 92.8017,44.4664 93.3027,46.7964" id="Fill-82" fill="#CFD8DC"></path>
            </g>
        </g>
    </g>
</svg>

<svg width="200" height="237" viewBox="0 0 200 237" xmlns="http://www.w3.org/2000/svg"><g id="Page-1" fill="none" fill-rule="evenodd"><g id="featured-listing" transform="translate(-460 -258)"><g id="icon" transform="translate(460 258)"><circle id="Oval" fill="#FFF" fill-rule="nonzero" cx="100" cy="112" r="100"/><path d="M19.476 61.37l-1.546-.783a5.294 5.294 0 0 1-2.8-3.687l-.336-1.698a.98.98 0 0 0-1.837-.25l-.781 1.543a5.288 5.288 0 0 1-3.687 2.8l-1.7.337a.98.98 0 0 0-.251 1.836l1.546.782a5.293 5.293 0 0 1 2.799 3.687l.337 1.7a.982.982 0 0 0 1.837.251l.78-1.546a5.291 5.291 0 0 1 3.688-2.798l1.699-.339a.979.979 0 0 0 .252-1.836" id="Fill-9" fill="#CFD8DC"/><path d="M143.666 167.419l-1.52-.768a5.203 5.203 0 0 1-2.751-3.626l-.333-1.669a.965.965 0 0 0-1.805-.248l-.769 1.519a5.194 5.194 0 0 1-3.625 2.752l-1.67.332a.964.964 0 0 0-.247 1.806l1.519.769a5.198 5.198 0 0 1 2.752 3.625l.332 1.67a.965.965 0 0 0 1.805.247l.769-1.519a5.202 5.202 0 0 1 3.626-2.752l1.669-.332a.965.965 0 0 0 .248-1.806" id="Fill-12" fill="#CFD8DC"/><path d="M132.647 90.629c-1.2-.33-2.36-.84-3.433-1.49 3.305 13.916 6.282 27.843 7.898 38.75l-2.86.243a1.5 1.5 0 0 0 .255 2.99l4.444-.379a1.498 1.498 0 0 0 1.357-1.702c-1.487-10.656-4.385-24.468-7.661-38.412" id="Fill-14" fill="#CFD8DC"/><path d="M125.248 73.013c.263-.458.573-.884.962-1.327.116-.133.242-.27.373-.397.144-.187.294-.368.445-.55l.045-.055c.072-.086.14-.175.213-.26.102-.113.215-.198.322-.297-5.711-22.38-11.051-40.901-11.153-41.25a1.5 1.5 0 0 0-1.728-1.055L54.867 39.54a1.5 1.5 0 0 0-1.15 1.898l2.041 6.893a1.5 1.5 0 0 0 2.877-.851l-1.574-5.313 56.891-11.137a1554.23 1554.23 0 0 1 11.296 41.982" id="Fill-16" fill="#CFD8DC"/><path d="M66.048 87.432s-2.765-8.805-15.401-3.66c-12.637 5.143-30.86 9.22-41.577 2.842 0 0 3.823 15.484 23.295 9.378" id="Stroke-18" stroke="#13C1AC" stroke-width="3" stroke-linecap="round" stroke-linejoin="round"/><path d="M18.977 97.983s5.132 10.906 18.62 5.425" id="Stroke-20" stroke="#13C1AC" stroke-width="3" stroke-linecap="round" stroke-linejoin="round"/><path d="M29.237 105.8s3.438 7.713 16.044 2.443" id="Stroke-22" stroke="#13C1AC" stroke-width="3" stroke-linecap="round" stroke-linejoin="round"/><path d="M41.419 110.496s3.047 6.072 10.645 1.596c7.597-4.476 8.569-7.107 8.569-7.107" id="Stroke-24" stroke="#13C1AC" stroke-width="3" stroke-linecap="round" stroke-linejoin="round"/><path d="M53.907 92.879s11.408-4.753 13.271 3.21" id="Stroke-26" stroke="#13C1AC" stroke-width="3" stroke-linecap="round" stroke-linejoin="round"/><g id="Group-31" transform="translate(51 100.794)"><path d="M.155 1.25L3.03.5" id="Fill-28" fill="#FFF"/><path d="M.155 1.25L3.03.5" id="Stroke-30" stroke="#13C1AC" stroke-width="3" stroke-linecap="round" stroke-linejoin="round"/></g><path d="M125.176 81.136c-1.076-14.638 11.298-17.017 11.298-17.017 21.97-3.226 39.707-14.517 46.87-28.166 0 0 13.826 21.083-29.034 33.683" id="Stroke-32" stroke="#13C1AC" stroke-width="3" stroke-linecap="round" stroke-linejoin="round"/><path d="M183.608 54.218s11.022 13.997-23.437 22.254" id="Stroke-34" stroke="#13C1AC" stroke-width="3" stroke-linecap="round" stroke-linejoin="round"/><path d="M181.386 68.462s1.748 11.017-16.402 15.083" id="Stroke-36" stroke="#13C1AC" stroke-width="3" stroke-linecap="round" stroke-linejoin="round"/><path d="M174.512 80.62s.838 11.022-16.623 8.787" id="Stroke-38" stroke="#13C1AC" stroke-width="3" stroke-linecap="round" stroke-linejoin="round"/><path d="M165.027 90c-3.096 2.28-7.366 4.345-12.912 4.724-1.9.13-3.952.061-6.157-.265-5.21-.769-11.28-2.977-18.263-7.403" id="Stroke-40" stroke="#13C1AC" stroke-width="3" stroke-linecap="round" stroke-linejoin="round"/><g id="Group-45" transform="translate(137 80.794)"><path d="M.155.625s3.875 1 5.875.5" id="Fill-42" fill="#FFF"/><path d="M.155.625s3.875 1 5.875.5" id="Stroke-44" stroke="#13C1AC" stroke-width="3" stroke-linecap="round" stroke-linejoin="round"/></g><g id="Group-49" transform="translate(142 72.794)"><path d="M.03 1.375s3.25 0 4.375-.375" id="Fill-46" fill="#FFF"/><path d="M.03 1.375s3.25 0 4.375-.375" id="Stroke-48" stroke="#13C1AC" stroke-width="3" stroke-linecap="round" stroke-linejoin="round"/></g><path d="M89.57 167.294l.171 35" id="Stroke-50" stroke="#ECEFF1" stroke-width="3" stroke-linecap="round" stroke-linejoin="round"/><path d="M120.57 174.294l.171 23" id="Stroke-52" stroke="#ECEFF1" stroke-width="3" stroke-linecap="round" stroke-linejoin="round"/><path d="M105.655 158.294v77" id="Stroke-54" stroke="#ECEFF1" stroke-width="3" stroke-linecap="round" stroke-linejoin="round"/><path d="M61.08 134.247l-.783-.893a3.62 3.62 0 0 1-.839-3.06l.22-1.165a.674.674 0 0 0-1.106-.63l-.89.784a3.626 3.626 0 0 1-3.06.839l-1.168-.22a.672.672 0 1 0-.629 1.104l.783.893a3.623 3.623 0 0 1 .84 3.06l-.22 1.167a.674.674 0 0 0 1.105.629l.892-.783a3.624 3.624 0 0 1 3.06-.84l1.166.219a.671.671 0 0 0 .63-1.104" id="Fill-56" fill="#C1F5E6"/><path d="M119.788 5.915l-.783-.892a3.622 3.622 0 0 1-.84-3.06l.22-1.166a.672.672 0 0 0-1.106-.63l-.89.784a3.625 3.625 0 0 1-3.06.839l-1.168-.218a.672.672 0 0 0-.629 1.103l.784.893a3.625 3.625 0 0 1 .84 3.06l-.22 1.166a.674.674 0 0 0 1.105.629l.892-.783a3.623 3.623 0 0 1 3.06-.84l1.166.219a.673.673 0 0 0 .63-1.104" id="Fill-58" fill="#C1F5E6"/><path d="M165.222 138.002l-.821-.936a3.8 3.8 0 0 1-.881-3.21l.229-1.224a.705.705 0 0 0-1.16-.66l-.933.822a3.804 3.804 0 0 1-3.211.88l-1.225-.228a.704.704 0 0 0-.66 1.157l.822.936a3.803 3.803 0 0 1 .88 3.212l-.228 1.224a.705.705 0 0 0 1.158.66l.935-.822a3.808 3.808 0 0 1 3.21-.881l1.226.23a.707.707 0 0 0 .743-.345.707.707 0 0 0-.084-.815" id="Fill-60" fill="#CFD8DC"/><path d="M120.655 205.294v15" id="Stroke-62" stroke="#ECEFF1" stroke-width="3" stroke-linecap="round"/><path d="M89.655 209.294v4" id="Stroke-64" stroke="#ECEFF1" stroke-width="3" stroke-linecap="round"/><path d="M87.903 87.394a7.572 7.572 0 0 0 14.752-3.427l-14.752 3.427z" id="Stroke-66" stroke="#607D8B" stroke-width="3" stroke-linejoin="round"/><path d="M105.456 76.675a4.852 4.852 0 0 1 5.434-1.262" id="Stroke-68" stroke="#607D8B" stroke-width="3" stroke-linecap="round" stroke-linejoin="round"/><path d="M76.064 83.504a4.85 4.85 0 0 1 5.434-1.263" id="Stroke-70" stroke="#607D8B" stroke-width="3" stroke-linecap="round" stroke-linejoin="round"/><path d="M51.822 49.536c-2-.691 16.666 25.572 27.333 96.758l56-8.985s-11-78.015-29.5-104.015L51.822 49.536z" id="Stroke-72" stroke="#607D8B" stroke-width="3" stroke-linecap="round" stroke-linejoin="round"/><path d="M60.794 53.81c-1.617-.612 13.739 22.258 22.36 85.15l45-7.604s-12.332-70.062-26-89.729L60.795 53.81z" id="Stroke-74" stroke="#CFD8DC" stroke-width="3" stroke-linecap="round" stroke-linejoin="round"/><path d="M92.488 135.627a7.667 7.667 0 0 0-7.666-7.667c-1.703 0-1.729-.604-3 .335-1.893 1.395 1.333 6.135 1.333 8.666 0 4.233-2.9 1 1.333 1 1.852 0-.658 1.425.667.333 1.705-1.407 7.333-.284 7.333-2.667" id="Fill-76" fill="#CFD8DC"/><path d="M118.639 131.77a7.666 7.666 0 0 1 3.788-10.158c1.549-.707 1.32-1.27 2.867-.944 2.3.485 1.336 6.135 2.388 8.438 1.76 3.852 3.055-.296-.797 1.463-1.684.769 1.192 1.024-.468.58-2.135-.57-6.788 2.789-7.778.622" id="Fill-78" fill="#CFD8DC"/><path d="M70.806 52.557a7.667 7.667 0 0 1-2.762 10.485c-1.47.857-1.187 1.393-2.76 1.223-2.336-.253-1.937-5.972-3.212-8.16-2.133-3.657-3.01.598.648-1.534 1.599-.933-1.287-.901.407-.624 2.182.356 6.479-3.45 7.679-1.39" id="Fill-80" fill="#CFD8DC"/><path d="M93.303 46.796a7.668 7.668 0 0 0 9.108 5.883c1.664-.358 1.817.228 2.863-.957 1.555-1.763-2.594-5.718-3.126-8.193-.891-4.139 2.625-1.587-1.514-.697-1.81.39.344-1.532-.723-.185-1.371 1.733-7.11 1.82-6.608 4.15" id="Fill-82" fill="#CFD8DC"/></g></g></g></svg>
